Adwaita++-Dark/actions/16/media-playback-start-rtl.svg

<svg fill="none" height="16" viewBox="0 0 16 16" width="16" xmlns="http://www.w3.org/2000/svg">
  <path d="m12 2.99997v10.00003h-.9062-.0937c-.1749.001-.3478-.0388-.5-.125l-7.00004-4.00003c-.3107-.17189-.46875-.52345-.46875-.875s.15805-.70311.46875-.875l7.00004-4c.1522-.0862.3251-.12631.5-.125h.0937z" fill="#e6ddff"/>
</svg>

<svg xmlns="http://www.w3.org/2000/svg" fill="none" width="16" height="16" viewBox="0 0 16 16">
 <path fill="#E6DDFF" d="M12 2.99997V13H11.0938H11.0001C10.8252 13.001 10.6523 12.9612 10.5001 12.875L3.50006 8.87497C3.18936 8.70308 3.03131 8.35152 3.03131 7.99997C3.03131 7.64842 3.18936 7.29686 3.50006 7.12497L10.5001 3.12497C10.6523 3.03877 10.8252 2.99866 11.0001 2.99997H11.0938H12Z"/>
</svg>
